icons/svg/craft/insulation.svg

<?xml version="1.0" encoding="UTF-8" standalone="no"?>
<!-- Created with Inkscape (http://www.inkscape.org/) -->

<svg
   xmlns:dc="http://purl.org/dc/elements/1.1/"
   xmlns:cc="http://creativecommons.org/ns#"
   xmlns:rdf="http://www.w3.org/1999/02/22-rdf-syntax-ns#"
   xmlns:svg="http://www.w3.org/2000/svg"
   xmlns="http://www.w3.org/2000/svg"
   xmlns:sodipodi="http://sodipodi.sourceforge.net/DTD/sodipodi-0.dtd"
   xmlns:inkscape="http://www.inkscape.org/namespaces/inkscape"
   version="1.0"
   width="580"
   height="580"
   id="svg2"
   sodipodi:version="0.32"
   inkscape:version="0.91 r"
   sodipodi:docname="insulation.svg"
   inkscape:output_extension="org.inkscape.output.svg.inkscape">
  <metadata
     id="metadata2975">
    <rdf:RDF>
      <cc:Work
         rdf:about="">
        <dc:format>image/svg+xml</dc:format>
        <dc:type
           rdf:resource="http://purl.org/dc/dcmitype/StillImage" />
        <cc:license
           rdf:resource="http://web.resource.org/cc/PublicDomain" />
        <dc:language>en</dc:language>
      </cc:Work>
    </rdf:RDF>
  </metadata>
  <sodipodi:namedview
     inkscape:window-height="739"
     inkscape:window-width="1332"
     inkscape:pageshadow="2"
     inkscape:pageopacity="0.0"
     guidetolerance="10.0"
     gridtolerance="10.0"
     objecttolerance="10.0"
     borderopacity="1.0"
     bordercolor="#666666"
     pagecolor="#ffffff"
     id="base"
     inkscape:zoom="0.23041928"
     inkscape:cx="-442.90476"
     inkscape:cy="8.4041396"
     inkscape:window-x="34"
     inkscape:window-y="1024"
     inkscape:current-layer="svg2"
     showgrid="false"
     inkscape:window-maximized="1" />
  <defs
     id="defs4">
    <marker
       inkscape:stockid="Arrow2Mend"
       orient="auto"
       refY="0.0"
       refX="0.0"
       id="Arrow2Mend"
       style="overflow:visible;"
       inkscape:isstock="true">
      <path
         id="path4175"
         style="fill-rule:evenodd;stroke-width:0.625;stroke-linejoin:round;stroke:#ffffff;stroke-opacity:1;fill:#ffffff;fill-opacity:1"
         d="M 8.7185878,4.0337352 L -2.2072895,0.016013256 L 8.7185884,-4.0017078 C 6.9730900,-1.6296469 6.9831476,1.6157441 8.7185878,4.0337352 z "
         transform="scale(0.6) rotate(180) translate(0,0)" />
    </marker>
    <marker
       inkscape:stockid="Arrow1Send"
       orient="auto"
       refY="0.0"
       refX="0.0"
       id="Arrow1Send"
       style="overflow:visible;"
       inkscape:isstock="true">
      <path
         id="path4163"
         d="M 0.0,0.0 L 5.0,-5.0 L -12.5,0.0 L 5.0,5.0 L 0.0,0.0 z "
         style="fill-rule:evenodd;stroke:#ffffff;stroke-width:1pt;stroke-opacity:1;fill:#ffffff;fill-opacity:1"
         transform="scale(0.2) rotate(180) translate(6,0)" />
    </marker>
    <marker
       inkscape:stockid="Arrow1Mend"
       orient="auto"
       refY="0.0"
       refX="0.0"
       id="Arrow1Mend"
       style="overflow:visible;"
       inkscape:isstock="true">
      <path
         id="path4157"
         d="M 0.0,0.0 L 5.0,-5.0 L -12.5,0.0 L 5.0,5.0 L 0.0,0.0 z "
         style="fill-rule:evenodd;stroke:#ffffff;stroke-width:1pt;stroke-opacity:1;fill:#ffffff;fill-opacity:1"
         transform="scale(0.4) rotate(180) translate(10,0)" />
    </marker>
    <marker
       inkscape:stockid="Arrow1Lend"
       orient="auto"
       refY="0.0"
       refX="0.0"
       id="Arrow1Lend"
       style="overflow:visible;"
       inkscape:isstock="true">
      <path
         id="path4151"
         d="M 0.0,0.0 L 5.0,-5.0 L -12.5,0.0 L 5.0,5.0 L 0.0,0.0 z "
         style="fill-rule:evenodd;stroke:#ffffff;stroke-width:1pt;stroke-opacity:1;fill:#ffffff;fill-opacity:1"
         transform="scale(0.8) rotate(180) translate(12.5,0)" />
    </marker>
    <inkscape:perspective
       sodipodi:type="inkscape:persp3d"
       inkscape:vp_x="0 : 290 : 1"
       inkscape:vp_y="0 : 1000 : 0"
       inkscape:vp_z="580 : 290 : 1"
       inkscape:persp3d-origin="290 : 193.33333 : 1"
       id="perspective2441" />
    <inkscape:perspective
       id="perspective3452"
       inkscape:persp3d-origin="30 : 20 : 1"
       inkscape:vp_z="60 : 30 : 1"
       inkscape:vp_y="0 : 1000 : 0"
       inkscape:vp_x="0 : 30 : 1"
       sodipodi:type="inkscape:persp3d" />
  </defs>
  <g
     id="g1327">
    <path
       d="M 66.275,1.768 C 24.94,1.768 1.704,23.139 1.704,66.804 L 1.704,516.927 C 1.704,557.771 22.599,579.156 63.896,579.156 L 515.92,579.156 C 557.227,579.156 578.149,558.841 578.149,516.927 L 578.149,66.804 C 578.149,24.203 557.227,1.768 514.628,1.768 C 514.624,1.768 66.133,1.625 66.275,1.768 z "
       style="fill:#111;stroke:#eee;stroke-width:3.40799999"
       id="path1329" />
  </g>
  <path
     style="fill:#ffffff"
     inkscape:connector-curvature="0"
     d="m 568.56741,244.13637 c 0,-5.444 -4.424,-9.867 -9.867,-9.867 l -33.619,0 17.529,-24.608 c 1.24,-1.735 1.832,-3.732 1.832,-5.714 0,-3.09 -1.441,-6.12 -4.145,-8.05 -4.441,-3.162 -10.6,-2.125 -13.762,2.313 l -25.689,36.06 -53.912,0 27.473,-46.498 44.117,-3.777 c 5.148,-0.436 9.027,-4.746 9.027,-9.814 0,-0.286 -0.008,-0.567 -0.039,-0.85601 -0.457,-5.429 -5.24,-9.454 -10.669,-8.985 l -30.113,2.572 17.115,-28.949 c 0.93,-1.581 1.373,-3.304 1.373,-5.012 0,-3.375 -1.738,-6.661 -4.852,-8.497 -4.689,-2.778 -10.738,-1.224 -13.508,3.469 l -17.104,28.952 -12.273,-27.624 c -2.219,-4.975 -8.055,-7.22 -13.029,-5.009 -4.971,2.215 -7.225,8.028 -5.012,13.029 l 17.988,40.46801 -27.642,46.772 -27.281,-47.11 18.322,-40.29501 c 0.601,-1.322 0.887,-2.715 0.887,-4.085 0,-3.748 -2.145,-7.329 -5.786,-8.981 -4.96,-2.26 -10.81,-0.064 -13.063,4.896 l -12.507,27.5 -16.851,-29.095 c -2.729,-4.716 -8.771,-6.319 -13.487,-3.593 -4.716,2.741 -6.327,8.756 -3.593,13.483 l 16.851,29.099 -30.09,-2.835 c -5.429,-0.511 -10.235,3.469 -10.746,8.898 -0.556,5.44401 3.466,10.23901 8.895,10.74601 l 44.083,4.153 27.102,46.798 -54.177,0 -25.693,-36.06 c -3.162,-4.438 -9.319,-5.467 -13.757,-2.313 -4.438,3.173 -5.474,9.331 -2.313,13.765 l 17.527,24.608 -33.615,0 c -5.448,0 -9.868,4.423 -9.868,9.868 0,5.452 4.419,9.867 9.868,9.867 l 33.615,0 -17.527,24.615 c -3.161,4.416 -2.125,10.586 2.313,13.758 4.438,3.162 10.596,2.125 13.757,-2.313 l 25.693,-36.061 53.914,0 -27.478,46.506 -44.117,3.777 c -5.437,0.457 -9.537,5.242 -8.985,10.67 0.455,5.43 5.238,9.455 10.667,8.982 l 30.113,-2.576 -17.11,28.956 c -2.76,4.68 -1.216,10.738 3.477,13.51 4.689,2.779 10.738,1.224 13.509,-3.477 l 17.103,-28.946 12.274,27.618 c 2.219,4.982 8.054,7.222 13.028,5.008 3.676,-1.629 5.857,-5.242 5.857,-9.023 0,-1.332 -0.267,-2.699 -0.849,-4.006 l -17.988,-40.459 27.642,-46.776 27.281,47.106 -18.318,40.303 c -2.26,4.947 -0.068,10.816 4.893,13.066 4.963,2.252 10.816,0.063 13.066,-4.896 l 12.51,-27.508 16.852,29.104 c 2.729,4.714 8.771,6.318 13.486,3.589 3.162,-1.832 4.918,-5.14 4.918,-8.542 0,-1.689 -0.424,-3.383 -1.328,-4.941 l -16.852,-29.098 30.09,2.834 c 5.43,0.516 10.24,-3.473 10.746,-8.902 0.037,-0.307 0.045,-0.623 0.045,-0.938 0,-5.025 -3.826,-9.324 -8.935,-9.805 l -44.088,-4.148 -27.102,-46.806 54.18,0 25.689,36.06 c 3.162,4.438 9.32,5.475 13.762,2.313 4.445,-3.168 5.486,-9.342 2.313,-13.756 l -17.529,-24.616 33.619,0 c 5.443,-0.003 9.867,-4.418 9.867,-9.871 z"
     id="path11" />
  <path
     style="fill:none;fill-rule:evenodd;stroke:#ffffff;stroke-width:80;stroke-linecap:round;stroke-linejoin:miter;stroke-miterlimit:4;stroke-dasharray:none;stroke-opacity:1"
     d="m 89.712858,83.868027 0,414.044363"
     id="path4140"
     inkscape:connector-curvature="0"
     sodipodi:nodetypes="cc" />
  <path
     style="fill:none;fill-rule:evenodd;stroke:#ffffff;stroke-width:30;stroke-linecap:round;stroke-linejoin:miter;stroke-miterlimit:4;stroke-dasharray:none;stroke-opacity:1;marker-end:url(#Arrow2Mend)"
     d="M 358.6306,56.66941 131.32758,283.97244 349.40829,502.05314"
     id="path4142"
     inkscape:connector-curvature="0"
     sodipodi:nodetypes="ccc" />
</svg>

<svg width="580" height="580" viewBox="0 0 580 580" fill="none" xmlns="http://www.w3.org/2000/svg">
<g clip-path="url(#clip0)">
<path d="M66.2751 1.76802C24.9401 1.76802 1.7041 23.139 1.7041 66.804V516.927C1.7041 557.771 22.5991 579.156 63.8961 579.156H515.92C557.227 579.156 578.149 558.841 578.149 516.927V66.804C578.149 24.203 557.227 1.76802 514.628 1.76802C514.624 1.76802 66.1331 1.62502 66.2751 1.76802Z" fill="#111111" stroke="#EEEEEE" stroke-width="3.408"/>
<path d="M568.567 244.136C568.567 238.692 564.144 234.269 558.701 234.269H525.081L542.61 209.661C543.85 207.926 544.442 205.929 544.442 203.947C544.442 200.857 543.001 197.827 540.297 195.897C535.856 192.735 529.697 193.772 526.535 198.21L500.846 234.27H446.934L474.407 187.772L518.524 183.995C523.672 183.559 527.551 179.249 527.551 174.181C527.551 173.895 527.543 173.614 527.512 173.325C527.055 167.896 522.272 163.871 516.843 164.34L486.73 166.912L503.845 137.963C504.775 136.382 505.218 134.659 505.218 132.951C505.218 129.576 503.48 126.29 500.366 124.454C495.677 121.676 489.628 123.23 486.858 127.923L469.754 156.875L457.481 129.251C455.262 124.276 449.426 122.031 444.452 124.242C439.481 126.457 437.227 132.27 439.44 137.271L457.428 177.739L429.786 224.511L402.505 177.401L420.827 137.106C421.428 135.784 421.714 134.391 421.714 133.021C421.714 129.273 419.569 125.692 415.928 124.04C410.968 121.78 405.118 123.976 402.865 128.936L390.358 156.436L373.507 127.341C370.778 122.625 364.736 121.022 360.02 123.748C355.304 126.489 353.693 132.504 356.427 137.231L373.278 166.33L343.188 163.495C337.759 162.984 332.953 166.964 332.442 172.393C331.886 177.837 335.908 182.632 341.337 183.139L385.42 187.292L412.522 234.09H358.345L332.652 198.03C329.49 193.592 323.333 192.563 318.895 195.717C314.457 198.89 313.421 205.048 316.582 209.482L334.109 234.09H300.494C295.046 234.09 290.626 238.513 290.626 243.958C290.626 249.41 295.045 253.825 300.494 253.825H334.109L316.582 278.44C313.421 282.856 314.457 289.026 318.895 292.198C323.333 295.36 329.491 294.323 332.652 289.885L358.345 253.824H412.259L384.781 300.33L340.664 304.107C335.227 304.564 331.127 309.349 331.679 314.777C332.134 320.207 336.917 324.232 342.346 323.759L372.459 321.183L355.349 350.139C352.589 354.819 354.133 360.877 358.826 363.649C363.515 366.428 369.564 364.873 372.335 360.172L389.438 331.226L401.712 358.844C403.931 363.826 409.766 366.066 414.74 363.852C418.416 362.223 420.597 358.61 420.597 354.829C420.597 353.497 420.33 352.13 419.748 350.823L401.76 310.364L429.402 263.588L456.683 310.694L438.365 350.997C436.105 355.944 438.297 361.813 443.258 364.063C448.221 366.315 454.074 364.126 456.324 359.167L468.834 331.659L485.686 360.763C488.415 365.477 494.457 367.081 499.172 364.352C502.334 362.52 504.09 359.212 504.09 355.81C504.09 354.121 503.666 352.427 502.762 350.869L485.91 321.771L516 324.605C521.43 325.121 526.24 321.132 526.746 315.703C526.783 315.396 526.791 315.08 526.791 314.765C526.791 309.74 522.965 305.441 517.856 304.96L473.768 300.812L446.666 254.006H500.846L526.535 290.066C529.697 294.504 535.855 295.541 540.297 292.379C544.742 289.211 545.783 283.037 542.61 278.623L525.081 254.007H558.701C564.144 254.004 568.567 249.589 568.567 244.136V244.136Z" fill="white"/>
<path d="M89.7129 83.868V497.912" stroke="white" stroke-width="80" stroke-linecap="round"/>
<path d="M358.631 56.6694L131.328 283.972L349.408 502.053" stroke="white" stroke-width="30" stroke-linecap="round"/>
</g>
<defs>
<clipPath id="clip0">
<path d="M0 0H580V580H0V0Z" fill="white"/>
</clipPath>
</defs>
</svg>
